2016/sp/news/logo.svg

<svg xmlns="http://www.w3.org/2000/svg" version="1.1" height="200px" width="400px"> <g>
  <g fill="#ff6501">
    <g>
      <path d="M74.39385,99.9986c0,4.37554 3.55827,7.93101 7.92682,7.93101L97.34447,107.92961c4.37135,0 7.92263,-3.55547 7.92263,-7.93101c0,-4.37135 -3.55128,-7.92961 -7.92263,-7.92961L82.32067,92.06899c-4.36855,0 -7.92682,3.55827 -7.92682,7.92961z"></path>
      <path d="M139.73214,77.23659L113.43421,77.23659c-6.92654,0 -13.0386,3.55128 -16.61922,8.9285L99.66496,86.16509c4.52502,0 8.53453,2.19196 11.06178,5.56302c0.82146,-0.40933 1.73233,-0.6608 2.70747,-0.6608L139.73214,91.06731c3.38783,0 6.14699,2.75916 6.14699,6.15397L145.87913,102.77872c0,3.39202 -2.76056,6.15118 -6.14699,6.15118L113.43421,108.9299c-0.97653,0 -1.8874,-0.24728 -2.70747,-0.65661c-2.52725,3.36827 -6.53676,5.56302 -11.06178,5.56302L96.81499,113.83631c3.57922,5.37303 9.69268,8.92431 16.61922,8.92431L139.73214,122.76062c11.01289,0 19.97212,-8.96343 19.97212,-19.9833L159.70426,97.21989c0,-11.01708 -8.95923,-19.9833 -19.97212,-19.9833z"></path>
      <path d="M68.95237,108.28726c-0.81448,0.39955 -1.71697,0.64264 -2.68372,0.64264L39.97492,108.9299c-3.39202,0 -6.15118,-2.75916 -6.15118,-6.15118L33.82374,97.22128c0,-3.39481 2.75916,-6.15397 6.15118,-6.15397L66.26865,91.06731c0.96675,0 1.86924,0.24728 2.68372,0.64264c2.52585,-3.36408 6.53257,-5.54626 11.04781,-5.54626L82.89206,86.16369c-3.58341,-5.37582 -9.69687,-8.9271 -16.62341,-8.9271L39.97492,77.23659c-11.01149,0 -19.97492,8.96622 -19.97492,19.98609L20,102.78011c0,11.01987 8.96343,19.9833 19.97492,19.9833L66.26865,122.76341c6.92654,0 13.0386,-3.55128 16.62201,-8.92431L79.99879,113.8391c-4.51384,-0.0014 -8.52056,-2.18777 -11.04642,-5.55185z"></path>
    </g>
    <g>
      <g>
        <path x="0" y="0" d="M179.71985,80.64066L192.3384,80.64066L204.72219,110.92518L207.71543,110.92518L207.71543,113.68366L195.68379,113.68366L195.68379,110.92518L201.67026,110.92518L198.32488,102.76714L183.00655,102.76714L179.71985,110.92518L185.70633,110.92518L185.70633,113.68366L173.67469,113.68366L173.67469,110.92518L176.78531,110.92518L188.11266,83.39914L179.71985,83.39914z M197.32713,100.18474L190.69506,84.10343L184.06298,100.18474L197.32713,100.18474z"></path>
        <path x="0" y="0" d="M210.94343,80.64066L226.027,80.64066c2.07375,0 3.67797,0.09782 4.81266,0.29345c1.13469,0.19564 2.19113,0.62604 3.16931,1.2912c1.01731,0.70429 1.86833,1.74116 2.55306,3.11062c0.68473,1.36946 1.02709,2.75847 1.02709,4.16706c0,2.07375 -0.72385,4.01055 -2.17156,5.8104c-1.44771,1.79986 -3.71709,2.85629 -6.80815,3.16931c1.40858,1.33033 4.20618,5.47782 8.3928,12.44248L242.16701,110.92518L242.16701,113.68366L234.83064,113.68366c-1.33033,-2.89542 -3.20844,-6.2408 -5.63433,-10.03615c-0.93905,-1.44771 -1.62378,-2.45524 -2.05418,-3.02258c-0.4304,-0.56735 -0.99775,-1.05644 -1.70204,-1.46727c-0.70429,-0.41084 -1.54553,-0.61625 -2.52371,-0.61625L218.69063,98.5414L218.69063,110.92518L223.91413,110.92518L223.91413,113.68366L210.94343,113.68366L210.94343,110.92518L215.75609,110.92518L215.75609,83.39914L210.94343,83.39914z M225.90962,83.39914L218.69063,83.39914L218.69063,95.78292L224.14889,95.78292c0.97818,0 1.75095,-0.00978 2.31829,-0.02935c0.56735,-0.01956 1.42815,-0.13695 2.5824,-0.35215c1.15426,-0.2152 2.06396,-0.52822 2.72913,-0.93905c0.66516,-0.41084 1.27164,-1.05644 1.81942,-1.9368c0.54778,-0.88036 0.82167,-1.94658 0.82167,-3.19866c0,-2.152 -0.82167,-3.79535 -2.46502,-4.93004c-0.97818,-0.66516 -2.99324,-0.99775 -6.04517,-0.99775z"></path>
        <path x="0" y="0" d="M250.14898,80.64066L262.76753,80.64066L275.15131,110.92518L278.14455,110.92518L278.14455,113.68366L266.11291,113.68366L266.11291,110.92518L272.09938,110.92518L268.754,102.76714L253.43567,102.76714L250.14898,110.92518L256.13545,110.92518L256.13545,113.68366L244.10381,113.68366L244.10381,110.92518L247.21443,110.92518L258.54178,83.39914L250.14898,83.39914z M267.75626,100.18474L261.12418,84.10343L254.4921,100.18474L267.75626,100.18474z"></path>
        <path x="0" y="0" d="M292.20103,78.05826c0,0 0.30813,-0.13695 0.92438,-0.41084c0.61625,-0.27389 1.68736,-0.41084 3.21333,-0.41084c1.52596,0 2.9052,0.27389 4.13771,0.82167c1.23251,0.54778 2.24004,1.32055 3.02258,2.31829c0.78255,0.99775 1.44771,2.09331 1.99549,3.28669c0.54778,1.19338 0.95862,2.53349 1.23251,4.02033c0.27389,1.48684 0.46953,2.87586 0.58691,4.16706c0.11738,1.2912 0.17607,2.64109 0.17607,4.04967c0,2.23026 -0.14673,4.304 -0.44018,6.22124c-0.29345,1.91724 -0.80211,3.8736 -1.52596,5.86909c-0.72385,1.99549 -1.86833,3.58015 -3.43342,4.75397c-1.56509,1.17382 -3.48233,1.76073 -5.75171,1.76073c-1.83898,0 -3.45298,-0.41084 -4.842,-1.23251c-1.38902,-0.82167 -2.46502,-1.85855 -3.228,-3.11062c-0.76298,-1.25207 -1.38902,-2.74869 -1.87811,-4.48986c-0.48909,-1.74116 -0.81189,-3.37473 -0.9684,-4.90069c-0.15651,-1.52596 -0.23476,-3.14975 -0.23476,-4.87135c0,-1.40858 0.05869,-2.75847 0.17607,-4.04967c0.11738,-1.2912 0.31302,-2.68022 0.58691,-4.16706c0.27389,-1.48684 0.68473,-2.82695 1.23251,-4.02033c0.54778,-1.19338 1.21295,-2.28895 1.99549,-3.28669c0.78255,-0.99775 1.79007,-1.77051 3.02258,-2.31829z M300.5058,81.43299c0,0 -0.28367,-0.25922 -0.85102,-0.77765c-0.56735,-0.51844 -1.67269,-0.77765 -3.31604,-0.77765c-1.64335,0 -3.04215,0.51844 -4.1964,1.55531c-1.15426,1.03687 -1.98571,2.43567 -2.49436,4.1964c-0.50865,1.76073 -0.8608,3.4432 -1.05644,5.04742c-0.19564,1.60422 -0.29345,3.32582 -0.29345,5.1648c0,1.83898 0.09782,3.57037 0.29345,5.19415c0.19564,1.62378 0.55756,3.31604 1.08578,5.07677c0.52822,1.76073 1.34989,3.15953 2.46502,4.1964c1.11513,1.03687 2.49436,1.55531 4.13771,1.55531c1.64335,0 3.04215,-0.51844 4.1964,-1.55531c1.15426,-1.03687 1.99549,-2.43567 2.52371,-4.1964c0.52822,-1.76073 0.89015,-3.45298 1.08578,-5.07677c0.19564,-1.62378 0.29345,-3.35517 0.29345,-5.19415c0,-1.83898 -0.09782,-3.57037 -0.29345,-5.19415c-0.19564,-1.62378 -0.55756,-3.30626 -1.08578,-5.04742c-0.52822,-1.74116 -1.35967,-3.13018 -2.49436,-4.16706z"></path>
        <path x="0" y="0" d="M327.41559,78.05826c0,0 0.30813,-0.13695 0.92438,-0.41084c0.61625,-0.27389 1.68736,-0.41084 3.21333,-0.41084c1.52596,0 2.9052,0.27389 4.13771,0.82167c1.23251,0.54778 2.24004,1.32055 3.02258,2.31829c0.78255,0.99775 1.44771,2.09331 1.99549,3.28669c0.54778,1.19338 0.95862,2.53349 1.23251,4.02033c0.27389,1.48684 0.46953,2.87586 0.58691,4.16706c0.11738,1.2912 0.17607,2.64109 0.17607,4.04967c0,2.23026 -0.14673,4.304 -0.44018,6.22124c-0.29345,1.91724 -0.80211,3.8736 -1.52596,5.86909c-0.72385,1.99549 -1.86833,3.58015 -3.43342,4.75397c-1.56509,1.17382 -3.48233,1.76073 -5.75171,1.76073c-1.83898,0 -3.45298,-0.41084 -4.842,-1.23251c-1.38902,-0.82167 -2.46502,-1.85855 -3.228,-3.11062c-0.76298,-1.25207 -1.38902,-2.74869 -1.87811,-4.48986c-0.48909,-1.74116 -0.81189,-3.37473 -0.9684,-4.90069c-0.15651,-1.52596 -0.23476,-3.14975 -0.23476,-4.87135c0,-1.40858 0.05869,-2.75847 0.17607,-4.04967c0.11738,-1.2912 0.31302,-2.68022 0.58691,-4.16706c0.27389,-1.48684 0.68473,-2.82695 1.23251,-4.02033c0.54778,-1.19338 1.21295,-2.28895 1.99549,-3.28669c0.78255,-0.99775 1.79007,-1.77051 3.02258,-2.31829z M335.72036,81.43299c0,0 -0.28367,-0.25922 -0.85102,-0.77765c-0.56735,-0.51844 -1.67269,-0.77765 -3.31604,-0.77765c-1.64335,0 -3.04215,0.51844 -4.1964,1.55531c-1.15426,1.03687 -1.98571,2.43567 -2.49436,4.1964c-0.50865,1.76073 -0.8608,3.4432 -1.05644,5.04742c-0.19564,1.60422 -0.29345,3.32582 -0.29345,5.1648c0,1.83898 0.09782,3.57037 0.29345,5.19415c0.19564,1.62378 0.55756,3.31604 1.08578,5.07677c0.52822,1.76073 1.34989,3.15953 2.46502,4.1964c1.11513,1.03687 2.49436,1.55531 4.13771,1.55531c1.64335,0 3.04215,-0.51844 4.1964,-1.55531c1.15426,-1.03687 1.99549,-2.43567 2.52371,-4.1964c0.52822,-1.76073 0.89015,-3.45298 1.08578,-5.07677c0.19564,-1.62378 0.29345,-3.35517 0.29345,-5.19415c0,-1.83898 -0.09782,-3.57037 -0.29345,-5.19415c-0.19564,-1.62378 -0.55756,-3.30626 -1.08578,-5.04742c-0.52822,-1.74116 -1.35967,-3.13018 -2.49436,-4.16706z"></path>
        <path x="0" y="0" d="M372.05005,77.23659L372.05005,102.29762L377.33223,102.29762L377.33223,105.11478L372.05005,105.11478L372.05005,110.92518L377.33223,110.92518L377.33223,113.68366L361.30961,113.68366L361.30961,110.92518L369.23288,110.92518L369.23288,105.11478L353.50371,105.11478L353.50371,101.71071L368.05906,77.23659z M356.37957,102.29762L369.23288,102.29762L369.23288,80.64066L369.1155,80.64066L356.37957,102.29762z"></path>
      </g>
      <g>
        <g>
          <circle cx="173.67" cy="120.1" r="2.67"></circle>
          <circle cx="241.56" cy="120.1" r="2.67"></circle>
          <circle cx="309.45" cy="120.1" r="2.67"></circle>
          <circle cx="377.33" cy="120.1" r="2.67"></circle>
          <path x="0" y="0" d="M374.72428,119.53483L374.66205,120.09489L374.72428,120.66061L374.75823,120.76244L312.34285,120.76244L312.05999,120.61535L312.1109,120.05529L312.02039,119.43866L312.52387,119.42735L374.75823,119.42735z M238.95259,119.53483L238.89036,120.09489L238.95259,120.66061L238.41516,120.76244L176.85401,120.76244L176.42972,120.68889L176.31092,120.12884L176.41275,119.54049L176.84835,119.42735L238.40384,119.42735z M306.83843,119.53483L306.77621,120.09489L306.83843,120.66061L306.45941,120.76244L244.90957,120.76244L244.42305,120.73981L244.20243,120.28158L244.1798,119.73849L244.38911,119.43301L244.92088,119.42735L306.46506,119.42735z"></path>
        </g>
      </g>
    </g>
  </g>
  <g></g>
</g>
</svg>

<svg xmlns="http://www.w3.org/2000/svg" width="400" height="200"><g fill="#ff6501"><path d="M74.4 100a7.94 7.94 0 0 0 7.92 7.93h15.02a7.93 7.93 0 0 0 0-15.86H82.32A7.94 7.94 0 0 0 74.4 100"/><path d="M139.73 77.24h-26.3a20 20 0 0 0-16.62 8.93h2.85c4.53 0 8.54 2.19 11.07 5.56a6 6 0 0 1 2.7-.66h26.3a6.16 6.16 0 0 1 6.15 6.15v5.56c0 3.4-2.76 6.15-6.15 6.15h-26.3c-.97 0-1.88-.25-2.7-.66a13.8 13.8 0 0 1-11.07 5.57h-2.85a20 20 0 0 0 16.62 8.92h26.3a20 20 0 0 0 19.97-19.98v-5.56a20 20 0 0 0-19.97-19.98m-70.78 31.05q-1.22.62-2.68.64h-26.3a6.16 6.16 0 0 1-6.15-6.15v-5.56c0-3.4 2.76-6.15 6.15-6.15h26.3q1.46.02 2.68.64A13.8 13.8 0 0 1 80 86.16h2.9a20 20 0 0 0-16.63-8.92h-26.3A20 20 0 0 0 20 97.22v5.56a20 20 0 0 0 19.97 19.98h26.3c6.93 0 13.04-3.55 16.62-8.92H80a13.8 13.8 0 0 1-11.04-5.55m110.76-27.65h12.62l12.38 30.29h3v2.75h-12.04v-2.75h5.99l-3.35-8.16h-15.31l-3.29 8.16h5.99v2.75h-12.04v-2.75h3.12L188.1 83.4h-8.39zm17.6 19.54L190.7 84.1l-6.64 16.08zm13.62-19.54h15.09q3.1 0 4.81.3a8 8 0 0 1 3.17 1.29 8 8 0 0 1 2.55 3.1 9 9 0 0 1 1.03 4.17 9 9 0 0 1-2.17 5.81q-2.17 2.7-6.81 3.17 2.1 2 8.4 12.45h5.16v2.75h-7.34a85 85 0 0 0-7.69-13.06 6 6 0 0 0-1.7-1.46 5 5 0 0 0-2.52-.62h-4.23v12.39h5.22v2.75h-12.97v-2.75h4.82V83.4h-4.82zm14.97 2.76h-7.22v12.38h5.46q1.47 0 2.32-.03t2.58-.35a8 8 0 0 0 2.73-.94 6 6 0 0 0 2.64-5.14q0-3.23-2.47-4.92-1.46-1-6.04-1m24.24-2.76h12.62l12.38 30.29h3v2.75H266.1v-2.75h5.99l-3.35-8.16h-15.31l-3.3 8.16h6v2.75H244.1v-2.75h3.11l11.33-27.53h-8.4zm17.6 19.54-6.63-16.08-6.63 16.08zm24.45-22.12.93-.41a9 9 0 0 1 3.2-.41q2.3 0 4.15.82a8 8 0 0 1 3.02 2.32 16.4 16.4 0 0 1 3.23 7.3q.41 2.23.58 4.17a45 45 0 0 1-.26 10.27q-.44 2.88-1.53 5.87-1.08 3-3.43 4.75a9.3 9.3 0 0 1-5.75 1.77 9.3 9.3 0 0 1-8.07-4.35 18 18 0 0 1-1.88-4.49 29 29 0 0 1-.97-4.9 48 48 0 0 1-.06-8.92q.18-1.94.59-4.17t1.23-4.02 2-3.28 3.02-2.32m8.3 3.37-.85-.77q-.84-.78-3.31-.78-2.46 0-4.2 1.55a9 9 0 0 0-2.5 4.2q-.75 2.64-1.05 5.05t-.3 5.16q0 2.76.3 5.2.3 2.43 1.09 5.07a9 9 0 0 0 2.46 4.2 6 6 0 0 0 4.14 1.55q2.46 0 4.2-1.55a9 9 0 0 0 2.52-4.2q.8-2.64 1.09-5.07t.29-5.2-.3-5.2A30 30 0 0 0 303 85.6a9 9 0 0 0-2.5-4.17m26.92-3.37.92-.41a9 9 0 0 1 3.21-.41q2.29 0 4.14.82a8 8 0 0 1 3.02 2.32 16.4 16.4 0 0 1 3.23 7.3q.41 2.23.59 4.17a45 45 0 0 1-.27 10.27q-.44 2.88-1.52 5.87-1.1 3-3.43 4.75a9.3 9.3 0 0 1-5.76 1.77 9.3 9.3 0 0 1-8.07-4.35 18 18 0 0 1-1.87-4.49 29 29 0 0 1-.97-4.9 48 48 0 0 1-.06-8.92q.18-1.94.59-4.17t1.23-4.02 2-3.28 3.02-2.32m8.3 3.37-.85-.77q-.85-.78-3.32-.78t-4.2 1.55a9 9 0 0 0-2.49 4.2q-.76 2.64-1.05 5.05t-.3 5.16.3 5.2 1.08 5.07a9 9 0 0 0 2.47 4.2 6 6 0 0 0 4.13 1.55q2.48 0 4.2-1.55a9 9 0 0 0 2.52-4.2q.8-2.64 1.1-5.07.28-2.44.28-5.2t-.29-5.2a30 30 0 0 0-1.09-5.04 9 9 0 0 0-2.49-4.17m36.33-4.19v25.06h5.28v2.81h-5.28v5.82h5.28v2.75h-16.02v-2.75h7.92v-5.82H353.5v-3.4l14.56-24.47zm-15.67 25.06h12.85V80.64h-.11z"/><circle cx="173.67" cy="120.1" r="2.67"/><circle cx="241.56" cy="120.1" r="2.67"/><circle cx="309.45" cy="120.1" r="2.67"/><circle cx="377.33" cy="120.1" r="2.67"/><path d="m374.72 119.53-.06.56.06.57.04.1h-62.42l-.28-.14.05-.56-.09-.62.5-.01h62.24zm-135.77 0-.06.56.06.57-.53.1h-61.57l-.42-.07-.12-.56.1-.59.44-.11h61.55zm67.89 0-.06.56.06.57-.38.1H244.9l-.49-.02-.22-.46-.02-.54.2-.3.54-.01h61.55z"/></g></svg>
